usr/share/icons/biglinux-icons-material/scalable/apps/evolution-tasks.svg

<?xml version="1.0" encoding="UTF-8" standalone="no"?>
<svg
   width="24"
   height="24"
   viewBox="0 0 6.349875 6.349875"
   version="1.1"
   id="svg8688"
   sodipodi:docname="stock_tasks.svg"
   inkscape:version="1.2.2 (b0a8486541, 2022-12-01)"
   xmlns:inkscape="http://www.inkscape.org/namespaces/inkscape"
   xmlns:sodipodi="http://sodipodi.sourceforge.net/DTD/sodipodi-0.dtd"
   xmlns:xlink="http://www.w3.org/1999/xlink"
   xmlns="http://www.w3.org/2000/svg"
   xmlns:svg="http://www.w3.org/2000/svg">
  <sodipodi:namedview
     id="namedview8690"
     pagecolor="#ffffff"
     bordercolor="#000000"
     borderopacity="0.25"
     inkscape:showpageshadow="2"
     inkscape:pageopacity="0.0"
     inkscape:pagecheckerboard="0"
     inkscape:deskcolor="#d1d1d1"
     showgrid="false"
     inkscape:zoom="5.6568543"
     inkscape:cx="-34.294679"
     inkscape:cy="22.273864"
     inkscape:window-width="2560"
     inkscape:window-height="998"
     inkscape:window-x="1680"
     inkscape:window-y="0"
     inkscape:window-maximized="1"
     inkscape:current-layer="svg8688" />
  <defs
     id="defs8662">
    <linearGradient
       id="a"
       x1="8.9960003"
       x2="8.9960003"
       y1="1.852"
       y2="3.4389999"
       gradientTransform="translate(10.494547,-0.1999794)"
       gradientUnits="userSpaceOnUse">
      <stop
         stop-color="#3db0ff"
         offset="0"
         id="stop8657" />
      <stop
         stop-color="#85cdff"
         offset="1"
         id="stop8659" />
    </linearGradient>
    <radialGradient
       fx="0"
       fy="0"
       cx="0"
       cy="0"
       r="1"
       gradientUnits="userSpaceOnUse"
       gradientTransform="matrix(0,5.8207184,-5.8207184,0,3.1748149,0.2645741)"
       spreadMethod="pad"
       id="radialGradient3666-6">
      <stop
         style="stop-color:#4db6ac;stop-opacity:1;"
         offset="0"
         id="stop3662-7" />
      <stop
         style="stop-color:#439e95;stop-opacity:1;"
         offset="1"
         id="stop3664-5" />
    </radialGradient>
    <radialGradient
       fx="0"
       fy="0"
       cx="0"
       cy="0"
       r="1"
       gradientUnits="userSpaceOnUse"
       gradientTransform="matrix(0,5.8207185,-5.8207185,0,3.1748138,0.264589)"
       spreadMethod="pad"
       id="radialGradient3666-6-1">
      <stop
         style="stop-color:#f8f8f8;stop-opacity:1;"
         offset="0"
         id="stop3662-7-1" />
      <stop
         style="stop-color:#474747;stop-opacity:1;"
         offset="1"
         id="stop3664-5-5" />
    </radialGradient>
    <linearGradient
       inkscape:collect="always"
       xlink:href="#a"
       id="linearGradient28532"
       gradientUnits="userSpaceOnUse"
       gradientTransform="matrix(0.44429576,0,0,0.44429576,-0.8215028,-0.20174848)"
       x1="8.9960003"
       y1="1.852"
       x2="8.9960003"
       y2="3.4389999" />
  </defs>
  <path
     d="m 2.5380638,0.294923 c 0.031749,0 0.062088,-0.0042 0.091015,-0.01235 0.380287,-0.02505 0.7605739,-0.02364 1.1398025,0.0028 0.3443044,0.02752 0.6776728,0.101951 1.0004581,0.224362 0.5358589,0.220482 0.9023877,0.603591 1.1009977,1.147916 0.1114756,0.328077 0.1788548,0.665679 0.1996683,1.011394 0.027516,0.435672 0.017991,0.86958 -0.030338,1.303841 C 6.0026264,4.277328 5.9239586,4.569422 5.8026054,4.85058 5.5778904,5.338462 5.2127726,5.674653 4.7086631,5.859152 4.3005073,5.997085 3.8803572,6.070109 3.4475074,6.077164 2.9624475,6.103274 2.4816209,6.065874 2.0050275,5.968158 1.1298028,5.773781 0.5882998,5.239334 0.3843978,4.36552 0.2976178,3.972886 0.2574008,3.574608 0.2658668,3.172097 0.2563668,2.744891 0.3014968,2.321919 0.4023898,1.905649 0.6172268,1.090043 1.1354468,0.58417 1.9566979,0.388734 2.1482525,0.341814 2.3426292,0.310064 2.5380642,0.294894 Z"
     style="fill:url(#radialGradient3666-6-1);fill-rule:evenodd;stroke:none;stroke-width:0.352683;stroke-dasharray:none"
     id="path3668-9" />
  <path
     id="path17326"
     style="opacity:0.727273;mix-blend-mode:normal;fill:#f8f9f9;fill-opacity:1;stroke-width:0.637963;paint-order:stroke fill markers"
     d="M 4.3190942,5.986629 4.2913062,4.939718 C 4.2767702,4.392092 4.7278778,3.939074 5.3023494,3.923664 L 6.0493095,3.903624 C 6.0223275,4.152244 5.9718845,4.396892 5.8976777,4.637309 5.7136576,5.189643 5.3572804,5.584787 4.8274932,5.820725 4.6612267,5.889265 4.4918343,5.943908 4.3190942,5.986626 Z" />
  <path
     d="m 1.4772235,4.6301474 v -0.242538 h 2.4253003 v 0.242538 z m 0,-0.727589 V 3.6600194 H 4.872626 v 0.242539 z m 0,-0.727617 V 2.9324294 H 4.872626 v 0.242512 z m 0,-0.72759 v -0.24253 H 4.872626 v 0.24253 z"
     fill="#fafafa"
     id="path24172"
     style="fill:#ffffff;fill-opacity:1;stroke-width:0.264578"
     sodipodi:nodetypes="cccccccccccccccccccc" />
  <path
     d="m 3.1749374,0.26787213 c -0.2092633,0 -0.3820943,0.17238676 -0.3820943,0.38209435 0,0.20970758 0.172831,0.38209442 0.3820943,0.38209442 0.2092633,0 0.3820944,-0.17283112 0.3820944,-0.38209442 0,-0.2092633 -0.1723868,-0.38209435 -0.3820944,-0.38209435 z m 0,0.23547675 c 0.082639,0 0.1466176,0.0639786 0.1466176,0.1466176 0,0.082639 -0.063979,0.1466176 -0.1466176,0.1466176 -0.082639,0 -0.1466176,-0.0639786 -0.1466176,-0.1466176 0,-0.082639 0.064423,-0.1466176 0.1466176,-0.1466176 z"
     color="#000000"
     fill="#008fff"
     style="font-variant-ligatures:normal;font-variant-position:normal;font-variant-caps:normal;font-variant-numeric:normal;font-variant-alternates:normal;font-variant-east-asian:normal;font-feature-settings:normal;font-variation-settings:normal;text-indent:0;text-decoration-line:none;text-decoration-style:solid;text-decoration-color:#000000;text-transform:none;text-orientation:mixed;white-space:normal;shape-padding:0;shape-margin:0;inline-size:0;isolation:auto;mix-blend-mode:normal;stroke-width:0.444296"
     id="path28528" />
  <path
     d="m 2.3521018,1.3261847 c 0,0 0.1172941,-0.70554177 0.3523265,-0.70554177 h 0.9405742 c 0.2354767,0 0.3527707,0.70509747 0.3527707,0.70509747 z"
     fill="url(#a)"
     fill-rule="evenodd"
     id="path28530"
     style="fill:url(#linearGradient28532);stroke-width:0.444296" />
</svg>

<svg xmlns="http://www.w3.org/2000/svg" xmlns:xlink="http://www.w3.org/1999/xlink" width="24" height="24" viewBox="0 0 6.35 6.35"><defs><linearGradient id="a" x1="8.996" x2="8.996" y1="1.852" y2="3.439" gradientTransform="translate(10.495 -.2)" gradientUnits="userSpaceOnUse"><stop offset="0" stop-color="#3db0ff"/><stop offset="1" stop-color="#85cdff"/></linearGradient><linearGradient xlink:href="#a" id="c" x1="8.996" x2="8.996" y1="1.852" y2="3.439" gradientTransform="matrix(.4443 0 0 .4443 -.822 -.202)" gradientUnits="userSpaceOnUse"/><radialGradient id="b" cx="0" cy="0" r="1" fx="0" fy="0" gradientTransform="rotate(90 1.455 1.72) scale(5.82072)" gradientUnits="userSpaceOnUse" spreadMethod="pad"><stop offset="0" style="stop-color:#f8f8f8;stop-opacity:1"/><stop offset="1" style="stop-color:#474747;stop-opacity:1"/></radialGradient></defs><path d="M2.538.295A.334.334 0 0 0 2.63.283a8.42 8.42 0 0 1 1.14.002 3.62 3.62 0 0 1 1 .225c.536.22.903.603 1.101 1.148.112.328.18.665.2 1.011.028.436.018.87-.03 1.304a3.166 3.166 0 0 1-.237.878c-.225.487-.59.824-1.094 1.008a4.125 4.125 0 0 1-1.261.218 5.644 5.644 0 0 1-1.443-.109C1.13 5.774.588 5.24.385 4.366a5.025 5.025 0 0 1-.12-1.194c-.009-.427.036-.85.137-1.266C.617 1.09 1.135.584 1.957.389c.191-.047.386-.079.581-.094Z" style="fill:url(#b);fill-rule:evenodd;stroke:none;stroke-width:.352683;stroke-dasharray:none"/><path d="M4.32 5.987 4.29 4.94c-.014-.548.437-1 1.011-1.016l.747-.02a3.914 3.914 0 0 1-.151.733c-.184.553-.54.948-1.07 1.184a3.595 3.595 0 0 1-.509.166Z" style="opacity:.727273;mix-blend-mode:normal;fill:#f8f9f9;fill-opacity:1;stroke-width:.637963;paint-order:stroke fill markers"/><path fill="#fafafa" d="M1.477 4.63v-.242h2.426v.242zm0-.727V3.66h3.396v.243zm0-.728v-.243h3.396v.243zm0-.728v-.242h3.396v.242z" style="fill:#fff;fill-opacity:1;stroke-width:.264578"/><path fill="#008fff" d="M3.175.268a.384.384 0 0 0-.382.382c0 .21.173.382.382.382.21 0 .382-.173.382-.382a.384.384 0 0 0-.382-.382zm0 .235c.083 0 .147.064.147.147a.145.145 0 0 1-.147.147.145.145 0 0 1-.147-.147c0-.083.065-.147.147-.147z" color="#000" style="font-variant-ligatures:normal;font-variant-position:normal;font-variant-caps:normal;font-variant-numeric:normal;font-variant-alternates:normal;font-variant-east-asian:normal;font-feature-settings:normal;font-variation-settings:normal;text-indent:0;text-decoration-line:none;text-decoration-style:solid;text-decoration-color:#000;text-transform:none;text-orientation:mixed;white-space:normal;shape-padding:0;shape-margin:0;inline-size:0;isolation:auto;mix-blend-mode:normal;stroke-width:.444296"/><path fill="url(#a)" fill-rule="evenodd" d="M2.352 1.326s.117-.705.352-.705h.941c.235 0 .353.705.353.705z" style="fill:url(#c);stroke-width:.444296"/></svg>
